src/assets/svg/icon.svg

<svg xmlns="http://www.w3.org/2000/svg" baseProfile="tiny-ps" version="1.2" viewBox="0 0 363 209"><defs/><style></style><g id="Background"><path id="Path 1" fill="#87d657" d="M184.33 6.37c-3.24 3.54-7.9 10.3-10.5 15.25-2.56 4.88-7.23 14.95-10.37 22.38-3.14 7.42-6.71 15.52-7.94 18-1.22 2.47-2.86 4.8-3.62 5.17-.9.44-6.79-3.46-16.4-10.84-8.25-6.33-18.6-13.89-23-16.8-4.4-2.9-10.93-6.44-14.5-7.86-3.58-1.42-8.86-3.05-11.75-3.63-3.52-.7-5.91-.71-7.25-.04-1.74.87-2.08 2.34-2.6 11.25-.32 5.64-.08 19.7.55 31.25s.78 22.9.35 25.22c-.57 2.99-1.38 4.37-2.8 4.74-1.1.28-7.4.52-14 .53-6.6 0-22.91.35-36.25.76-22.15.68-24.25.9-24.25 2.5 0 .96 1.18 5.01 2.63 9 1.44 3.99 4.22 10.62 6.17 14.75 1.95 4.12 6.49 12 10.1 17.5 4.16 6.35 10.39 13.86 17.08 20.57 5.78 5.82 13.22 12.59 16.52 15.06 3.3 2.47 9.82 6.73 14.5 9.47 4.67 2.74 11.42 6.37 15 8.06 3.57 1.7 9.65 4.01 13.5 5.15 3.85 1.14 9.92 2.58 13.5 3.21 3.57.62 13.59 1.1 22.25 1.06 8.66-.05 16.76-.3 18-.56 1.24-.27 8.55-.97 16.25-1.56 7.7-.59 18.27-1.05 23.5-1.02 5.22.03 16.25.95 24.5 2.04s20.4 1.99 27 2.01c6.6.02 15.82-.63 20.5-1.45 4.67-.81 11.42-2.42 15-3.58 3.57-1.16 11-4.24 16.5-6.83 5.5-2.6 13.6-7.18 18-10.18s12.75-10.18 18.55-15.95c5.8-5.78 12.61-13.43 15.14-17 2.52-3.58 6.41-9.88 8.64-14 2.22-4.13 5.17-10.88 6.54-15 1.37-4.13 2.82-10.2 3.22-13.5.66-5.49.54-6.11-1.43-7.25-1.19-.69-7-1.75-12.91-2.35-5.91-.61-17.95-1.14-26.75-1.18-8.8-.04-18.93.47-22.5 1.14-3.58.66-6.73.93-7 .6-.28-.33.07-12.38.76-26.78s1.48-30.01 1.76-34.68c.28-4.68.08-9.18-.44-10-.85-1.33-1.92-1.3-9.27.27-4.79 1.02-12.12 3.63-17.31 6.16-4.95 2.43-15.19 8.72-22.75 13.99-7.56 5.27-14.24 9.47-14.84 9.33-.59-.14-3.44-6.1-6.33-13.25s-6.73-15.93-8.53-19.5c-1.81-3.58-5.2-9.43-7.54-13-2.33-3.58-6.67-8.43-9.63-10.79-2.96-2.35-5.9-4.27-6.55-4.25-.64.02-3.79 2.91-7 6.41z"/><path id="Path 2" fill="#63c41c" d="M224.25 70.07c-1.79.51-4.71 1.83-6.5 2.93s-5.43 4.14-8.09 6.75c-2.67 2.61-6.47 7.22-8.46 10.25-1.99 3.02-5.31 9.32-7.37 14-2.06 4.67-4.81 12.55-6.11 17.5-1.65 6.3-2.62 8.55-3.22 7.5-.48-.83-3.7-9.15-7.17-18.5-3.62-9.75-8.34-20.34-11.07-24.83-2.62-4.31-6-9.37-7.51-11.25-2.61-3.25-2.89-3.35-5.5-2.06-1.54.76-3.7 3.3-4.89 5.75-1.22 2.49-2.67 8.49-3.36 13.89-.7 5.52-1.06 16.93-.86 27.25.2 9.76.13 17.77-.14 17.79-.28.02-4.55-3.18-9.5-7.11-4.95-3.94-10.8-8.39-13-9.89-2.2-1.51-6.03-3.86-8.5-5.23-2.48-1.37-7.43-3.44-11-4.6-3.58-1.16-8.3-2.4-10.5-2.75-2.2-.35-4.9-.89-6-1.21-1.88-.54-1.95-.27-1.21 4.34.43 2.7 1.95 8.28 3.39 12.41 1.43 4.12 4.39 10.87 6.57 15 2.19 4.12 6.04 10.42 8.55 14 2.52 3.57 7.76 9.83 11.64 13.89 3.88 4.07 10.66 10.08 15.06 13.35 4.4 3.28 11.15 7.46 15 9.3 3.85 1.84 10.6 4.37 15 5.62 6.52 1.86 10.4 2.28 21 2.25 10.51-.03 14.62-.48 21.5-2.39 4.67-1.3 11.65-3.65 15.5-5.24 3.85-1.58 10.37-4.72 14.5-6.98 4.12-2.26 10.87-6.37 15-9.14 4.12-2.77 9.91-7.32 12.85-10.1 2.94-2.78 7.5-7.99 10.13-11.56 2.62-3.58 6.16-8.98 7.86-12 1.7-3.03 4.25-8.88 5.66-13 1.41-4.13 2.89-10.17 3.28-13.42l.72-5.93c-13.37 1.14-19.35 2.4-22.5 3.67-3.03 1.22-9.33 4.96-14 8.31-4.68 3.35-10.75 7.29-13.5 8.74l-5 2.65c-.49-6.6-.16-12.12.41-16.52.56-4.4 1.29-12.5 1.61-18 .32-5.5.22-13.6-.22-18-.8-7.99-.8-8-3.8-8.18-1.65-.1-4.46.23-6.25.75z"/></g></svg>

<svg version="1.2" baseProfile="tiny-ps" xmlns="http://www.w3.org/2000/svg" viewBox="0 0 363 209" width="363" height="209">
	<title>Background</title>
	<style>
		tspan { white-space:pre }
		.shp0 { fill: #87d657 } 
		.shp1 { fill: #63c41c } 
	</style>
	<g id="Background">
		<path id="Path 1" class="shp0" d="M184.33 6.37C181.09 9.91 176.43 16.67 173.83 21.62C171.27 26.5 166.6 36.57 163.46 44C160.32 51.42 156.75 59.52 155.52 62C154.3 64.47 152.66 66.8 151.9 67.17C151 67.61 145.11 63.71 135.5 56.33C127.25 50 116.9 42.44 112.5 39.53C108.1 36.63 101.57 33.09 98 31.67C94.42 30.25 89.14 28.62 86.25 28.04C82.73 27.34 80.34 27.33 79 28C77.26 28.87 76.92 30.34 76.4 39.25C76.08 44.89 76.32 58.95 76.95 70.5C77.58 82.05 77.73 93.4 77.3 95.72C76.73 98.71 75.92 100.09 74.5 100.46C73.4 100.74 67.1 100.98 60.5 100.99C53.9 100.99 37.59 101.34 24.25 101.75C2.1 102.43 0 102.65 0 104.25C0 105.21 1.18 109.26 2.63 113.25C4.07 117.24 6.85 123.87 8.8 128C10.75 132.12 15.29 140 18.9 145.5C23.06 151.85 29.29 159.36 35.98 166.07C41.76 171.89 49.2 178.66 52.5 181.13C55.8 183.6 62.32 187.86 67 190.6C71.67 193.34 78.42 196.97 82 198.66C85.57 200.36 91.65 202.67 95.5 203.81C99.35 204.95 105.42 206.39 109 207.02C112.57 207.64 122.59 208.12 131.25 208.08C139.91 208.03 148.01 207.78 149.25 207.52C150.49 207.25 157.8 206.55 165.5 205.96C173.2 205.37 183.77 204.91 189 204.94C194.22 204.97 205.25 205.89 213.5 206.98C221.75 208.07 233.9 208.97 240.5 208.99C247.1 209.01 256.32 208.36 261 207.54C265.67 206.73 272.42 205.12 276 203.96C279.57 202.8 287 199.72 292.5 197.13C298 194.53 306.1 189.95 310.5 186.95C314.9 183.95 323.25 176.77 329.05 171C334.85 165.22 341.66 157.57 344.19 154C346.71 150.42 350.6 144.12 352.83 140C355.05 135.87 358 129.12 359.37 125C360.74 120.87 362.19 114.8 362.59 111.5C363.25 106.01 363.13 105.39 361.16 104.25C359.97 103.56 354.16 102.5 348.25 101.9C342.34 101.29 330.3 100.76 321.5 100.72C312.7 100.68 302.57 101.19 299 101.86C295.42 102.52 292.27 102.79 292 102.46C291.72 102.13 292.07 90.08 292.76 75.68C293.45 61.28 294.24 45.67 294.52 41C294.8 36.32 294.6 31.82 294.08 31C293.23 29.67 292.16 29.7 284.81 31.27C280.02 32.29 272.69 34.9 267.5 37.43C262.55 39.86 252.31 46.15 244.75 51.42C237.19 56.69 230.51 60.89 229.91 60.75C229.32 60.61 226.47 54.65 223.58 47.5C220.69 40.35 216.85 31.57 215.05 28C213.24 24.42 209.85 18.57 207.51 15C205.18 11.42 200.84 6.57 197.88 4.21C194.92 1.86 191.98 -0.06 191.33 -0.04C190.69 -0.02 187.54 2.87 184.33 6.37Z" />
		<path id="Path 2" class="shp1" d="M224.25 70.07C222.46 70.58 219.54 71.9 217.75 73C215.96 74.1 212.32 77.14 209.66 79.75C206.99 82.36 203.19 86.97 201.2 90C199.21 93.02 195.89 99.32 193.83 104C191.77 108.67 189.02 116.55 187.72 121.5C186.07 127.8 185.1 130.05 184.5 129C184.02 128.17 180.8 119.85 177.33 110.5C173.71 100.75 168.99 90.16 166.26 85.67C163.64 81.36 160.26 76.3 158.75 74.42C156.14 71.17 155.86 71.07 153.25 72.36C151.71 73.12 149.55 75.66 148.36 78.11C147.14 80.6 145.69 86.6 145 92C144.3 97.52 143.94 108.93 144.14 119.25C144.34 129.01 144.27 137.02 144 137.04C143.72 137.06 139.45 133.86 134.5 129.93C129.55 125.99 123.7 121.54 121.5 120.04C119.3 118.53 115.47 116.18 113 114.81C110.52 113.44 105.57 111.37 102 110.21C98.42 109.05 93.7 107.81 91.5 107.46C89.3 107.11 86.6 106.57 85.5 106.25C83.62 105.71 83.55 105.98 84.29 110.59C84.72 113.29 86.24 118.87 87.68 123C89.11 127.12 92.07 133.87 94.25 138C96.44 142.12 100.29 148.42 102.8 152C105.32 155.57 110.56 161.83 114.44 165.89C118.32 169.96 125.1 175.97 129.5 179.24C133.9 182.52 140.65 186.7 144.5 188.54C148.35 190.38 155.1 192.91 159.5 194.16C166.02 196.02 169.9 196.44 180.5 196.41C191.01 196.38 195.12 195.93 202 194.02C206.67 192.72 213.65 190.37 217.5 188.78C221.35 187.2 227.87 184.06 232 181.8C236.12 179.54 242.87 175.43 247 172.66C251.12 169.89 256.91 165.34 259.85 162.56C262.79 159.78 267.35 154.57 269.98 151C272.6 147.42 276.14 142.02 277.84 139C279.54 135.97 282.09 130.12 283.5 126C284.91 121.87 286.39 115.83 286.78 112.58L287.5 106.65C274.13 107.79 268.15 109.05 265 110.32C261.97 111.54 255.67 115.28 251 118.63C246.32 121.98 240.25 125.92 237.5 127.37L232.5 130.02C232.01 123.42 232.34 117.9 232.91 113.5C233.47 109.1 234.2 101 234.52 95.5C234.84 90 234.74 81.9 234.3 77.5C233.5 69.51 233.5 69.5 230.5 69.32C228.85 69.22 226.04 69.55 224.25 70.07Z" />
	</g>
</svg>
